Newaita-dark/apps/48/kexi.svg

<svg height="48pt" viewBox="0 0 48 48" width="48pt" xmlns="http://www.w3.org/2000/svg" xmlns:xlink="http://www.w3.org/1999/xlink"><linearGradient id="a" gradientTransform="matrix(.0019533 0 0 .093759 23.318631 20.158178)" gradientUnits="userSpaceOnUse" x1="254" x2="254" y1="233.5" y2="254.666672"><stop offset="0" stop-opacity=".27451"/><stop offset="1" stop-opacity="0"/></linearGradient><linearGradient id="b"><stop offset="0" stop-opacity=".313725"/><stop offset=".222222" stop-opacity=".27451"/><stop offset="1" stop-opacity="0"/></linearGradient><radialGradient id="c" cx="450.908936" cy="189.579361" gradientTransform="matrix(.00000026 -.117199 -.210958 -.00000015 63.559814 95.392999)" gradientUnits="userSpaceOnUse" r="21.166656" xlink:href="#b"/><radialGradient id="d" cx="450.908936" cy="189.579361" gradientTransform="matrix(-.00000026 .117199 .210958 .00000015 -15.930249 -11.29122)" gradientUnits="userSpaceOnUse" r="21.166656" xlink:href="#b"/><radialGradient id="e" cx="450.908936" cy="189.579361" gradientTransform="matrix(-.00000026 -.117199 .210958 -.00000015 -15.930249 95.392999)" gradientUnits="userSpaceOnUse" r="21.166656" xlink:href="#b"/><radialGradient id="f" cx="450.908936" cy="189.579361" gradientTransform="matrix(.00000026 .117199 -.210958 .00000015 63.559811 -11.291219)" gradientUnits="userSpaceOnUse" r="21.166656" xlink:href="#b"/><linearGradient id="g"><stop offset="0" stop-color="#26c6da"/><stop offset="1" stop-color="#4dd0e1"/></linearGradient><linearGradient id="h" gradientUnits="userSpaceOnUse" x1="960.000112" x2="960.000112" xlink:href="#g" y1="1861.099561" y2="1101.09946225459"/><linearGradient id="i" gradientUnits="userSpaceOnUse" x1="23.814786" x2="23.814786" xlink:href="#g" y1="36.4693135" y2="17.61594099998"/><linearGradient id="j" gradientUnits="userSpaceOnUse" x1="23.814786" x2="23.814786" xlink:href="#g" y1="21.2207005" y2="2.36732799998"/><path d="m23.566406 42.050781h.496094v1.984375h-.496094zm0 0" fill="url(#a)"/><path d="m24.0625 42.050781h3.96875v-1.984375h-3.96875zm0 0" fill="url(#c)"/><path d="m23.566406 42.050781h-3.96875v1.984375h3.96875zm0 0" fill="url(#d)"/><path d="m23.566406 42.050781h-3.96875v-1.984375h3.96875zm0 0" fill="url(#e)"/><path d="m24.0625 42.050781h3.96875v1.984375h-3.96875zm0 0" fill="url(#f)"/><g fill-rule="evenodd"><path d="m154.945841 1204.174935v247.377964c-.629861 3.149306-.944791 6.298612-.944791 9.605383 0 17.163716 9.447917 34.484897 28.186286 42.358162l759.92747 319.969461c5.668751 2.361979 11.652432 3.621702 17.793578 3.621702s12.282292-1.259723 17.951042-3.621702l759.927471-319.969461c18.738369-7.873265 28.186286-25.194446 28.186286-42.358162 0-3.306771-.31493-6.456077-.944792-9.605383v-247.377964zm0 0" fill="url(#h)" stroke="#212121" stroke-linecap="round" stroke-linejoin="round" stroke-width="11.338583" transform="matrix(.0248071 0 0 .0248071 0 -3.200159)"/><path d="m23.8125 42.050781c-.152344 0-.300781-.03125-.441406-.089843l-18.851563-7.9375c-.535156-.226563-.765625-.761719-.683593-1.25.0625.355468.292968.6875.683593.851562l18.851563 7.941406c.140625.058594.289062.085938.441406.089844.152344 0 .304688-.03125.445312-.089844l18.851563-7.941406c.394531-.164062.621094-.496094.683594-.851562.082031.488281-.148438 1.023437-.683594 1.25l-18.851563 7.9375c-.140624.058593-.292968.089843-.445312.089843zm0 0" fill-opacity=".235294"/><path d="m23.8125 17.46875c-.152344 0-.300781.03125-.441406.089844l-18.851563 7.9375c-.464843.195312-.699219.621094-.699219 1.050781s.234376.855469.699219 1.050781l18.851563 7.9375c.140625.058594.289062.089844.441406.089844s.304688-.03125.445312-.089844l18.851563-7.9375c.464844-.195312.699219-.621094.699219-1.050781s-.234375-.855469-.699219-1.050781l-18.851563-7.9375c-.140624-.0625-.292968-.089844-.445312-.089844zm0 0" fill="url(#i)"/><path d="m23.8125 17.46875c-.152344 0-.300781.03125-.441406.089844l-18.851563 7.9375c-.535156.222656-.765625.761718-.683593 1.25.0625-.359375.292968-.6875.683593-.855469l18.851563-7.9375c.140625-.058594.289062-.089844.441406-.089844s.304688.03125.445312.089844l18.851563 7.9375c.394531.167969.621094.496094.683594.855469.082031-.488282-.148438-1.027344-.683594-1.25l-18.851563-7.9375c-.140624-.0625-.292968-.089844-.445312-.089844zm0 0" fill="#fff" fill-opacity=".392157"/><path d="m23.8125 35.601562c-.152344 0-.300781-.03125-.441406-.089843l-18.851563-7.9375c-.535156-.226563-.765625-.761719-.683593-1.25.0625.355469.292968.6875.683593.851562l18.851563 7.941407c.140625.058593.289062.085937.441406.085937s.304688-.027344.445312-.085937l18.851563-7.941407c.394531-.164062.621094-.496093.683594-.851562.082031.488281-.148438 1.023437-.683594 1.25l-18.851563 7.9375c-.140624.058593-.292968.089843-.445312.089843zm0 0" fill-opacity=".235294"/><path d="m23.8125 17.328125c-.167969 0-.339844.03125-.496094.097656l-18.851562 7.941407c-.515625.214843-.785156.699218-.785156 1.179687s.269531.964844.785156 1.179687l18.851562 7.9375c.15625.066407.328125.101563.496094.101563.171875 0 .339844-.035156.5-.101563l18.851562-7.9375c.515626-.214843.785157-.699218.785157-1.179687s-.269531-.964844-.785157-1.179687l-18.851562-7.941407c-.160156-.066406-.328125-.097656-.5-.097656zm0 .28125c.132812 0 .265625.023437.390625.078125l18.851563 7.9375c.414062.171875.613281.542969.613281.921875 0 .375-.199219.75-.613281.921875l-18.851563 7.9375c-.125.050781-.257813.078125-.390625.078125s-.261719-.027344-.386719-.078125l-18.851562-7.9375c-.410157-.171875-.613281-.546875-.613281-.921875 0-.378906.203124-.75.613281-.921875l18.851562-7.9375c.125-.050781.253907-.078125.386719-.078125zm0 0" fill="#212121"/><path d="m154.945841 1204.119038v247.53543c-.629861 2.99184-.944791 6.298611-.944791 9.447917 0 17.321182 9.447917 34.484898 28.186286 42.358162l759.92747 319.969461c5.668751 2.36198 11.652432 3.621702 17.793578 3.621702s12.282292-1.259722 17.951042-3.621702l759.927471-319.969461c18.738369-7.873264 28.186286-25.03698 28.186286-42.358162 0-3.149306-.31493-6.456077-.944792-9.447917v-247.53543zm0 0" fill="url(#h)" stroke="#212121" stroke-linecap="round" stroke-linejoin="round" stroke-width="11.338583" transform="matrix(.0248071 0 0 .0248071 0 -18.448772)"/><path d="m23.8125 26.800781c-.152344 0-.300781-.027343-.441406-.085937l-18.851563-7.941406c-.535156-.222657-.765625-.761719-.683593-1.25.0625.359374.292968.691406.683593.855468l18.851563 7.9375c.140625.058594.289062.089844.441406.089844s.304688-.03125.445312-.089844l18.851563-7.9375c.394531-.164062.621094-.496094.683594-.855468.082031.488281-.148438 1.027343-.683594 1.25l-18.851563 7.941406c-.140624.058594-.292968.085937-.445312.085937zm0 0" fill-opacity=".235294"/><path d="m23.8125 2.21875c-.152344 0-.300781.03125-.441406.089844l-18.851563 7.9375c-.464843.195312-.699219.625-.699219 1.050781 0 .429687.234376.855469.699219 1.050781l18.851563 7.941406c.140625.058594.289062.085938.441406.085938.152344.003906.304688-.027344.445312-.085938l18.851563-7.941406c.464844-.195312.699219-.621094.699219-1.050781 0-.425781-.234375-.855469-.699219-1.050781l-18.851563-7.9375c-.140624-.058594-.292968-.089844-.445312-.089844zm0 0" fill="url(#j)"/><path d="m23.8125 2.21875c-.152344 0-.300781.03125-.441406.089844l-18.851563 7.9375c-.535156.226562-.765625.761718-.683593 1.25.0625-.355469.292968-.6875.683593-.851563l18.851563-7.941406c.140625-.058594.289062-.085937.441406-.085937.152344-.003907.304688.027343.445312.085937l18.851563 7.941406c.394531.164063.621094.496094.683594.851563.082031-.488282-.148438-1.023438-.683594-1.25l-18.851563-7.9375c-.140624-.058594-.292968-.089844-.445312-.089844zm0 0" fill="#fff" fill-opacity=".392157"/><path d="m23.8125 20.351562c-.152344 0-.300781-.03125-.441406-.089843l-18.851563-7.9375c-.535156-.226563-.765625-.761719-.683593-1.25.0625.359375.292968.6875.683593.855469l18.851563 7.9375c.140625.058593.289062.089843.441406.089843s.304688-.03125.445312-.089843l18.851563-7.9375c.394531-.167969.621094-.496094.683594-.855469.082031.488281-.148438 1.023437-.683594 1.25l-18.851563 7.9375c-.140624.0625-.292968.089843-.445312.089843zm0 0" fill-opacity=".235294"/><path d="m23.8125 2.078125c-.167969 0-.339844.035156-.496094.101563l-18.851562 7.9375c-.515625.21875-.785156.699218-.785156 1.179687s.269531.964844.785156 1.183594l18.851562 7.9375c.15625.066406.328125.097656.496094.097656.171875.003906.339844-.03125.5-.097656l18.851562-7.9375c.515626-.21875.785157-.703125.785157-1.183594s-.269531-.960937-.785157-1.179687l-18.851562-7.9375c-.160156-.066407-.328125-.101563-.5-.101563zm0 .28125c.132812 0 .265625.027344.390625.078125l18.851563 7.9375c.414062.175781.613281.546875.613281.921875 0 .378906-.199219.75-.613281.921875l-18.851563 7.9375c-.125.054688-.257813.078125-.390625.078125s-.261719-.023437-.386719-.078125l-18.851562-7.9375c-.410157-.171875-.613281-.542969-.613281-.921875 0-.375.203124-.746094.613281-.921875l18.851562-7.9375c.125-.050781.253907-.078125.386719-.078125zm0 0" fill="#212121"/></g></svg>

<?xml version="1.0" encoding="UTF-8"?>
<svg xmlns="http://www.w3.org/2000/svg" xmlns:xlink="http://www.w3.org/1999/xlink" width="48pt" height="48pt" viewBox="0 0 48 48" version="1.1">
<defs>
<linearGradient id="linear0" gradientUnits="userSpaceOnUse" x1="254" y1="233.5" x2="254" y2="254.666672" gradientTransform="matrix(0.0019533,0,0,0.093759,23.318631,20.158178)">
<stop offset="0" style="stop-color:rgb(0%,0%,0%);stop-opacity:0.27451;"/>
<stop offset="1" style="stop-color:rgb(0%,0%,0%);stop-opacity:0;"/>
</linearGradient>
<radialGradient id="radial0" gradientUnits="userSpaceOnUse" cx="450.908936" cy="189.579361" fx="450.908936" fy="189.579361" r="21.166656" gradientTransform="matrix(0.000000261256,-0.117199,-0.210958,-0.000000152308,63.559814,95.392999)">
<stop offset="0" style="stop-color:rgb(0%,0%,0%);stop-opacity:0.313725;"/>
<stop offset="0.222222" style="stop-color:rgb(0%,0%,0%);stop-opacity:0.27451;"/>
<stop offset="1" style="stop-color:rgb(0%,0%,0%);stop-opacity:0;"/>
</radialGradient>
<radialGradient id="radial1" gradientUnits="userSpaceOnUse" cx="450.908936" cy="189.579361" fx="450.908936" fy="189.579361" r="21.166656" gradientTransform="matrix(-0.000000261256,0.117199,0.210958,0.000000152308,-15.930249,-11.29122)">
<stop offset="0" style="stop-color:rgb(0%,0%,0%);stop-opacity:0.313725;"/>
<stop offset="0.222222" style="stop-color:rgb(0%,0%,0%);stop-opacity:0.27451;"/>
<stop offset="1" style="stop-color:rgb(0%,0%,0%);stop-opacity:0;"/>
</radialGradient>
<radialGradient id="radial2" gradientUnits="userSpaceOnUse" cx="450.908936" cy="189.579361" fx="450.908936" fy="189.579361" r="21.166656" gradientTransform="matrix(-0.000000261256,-0.117199,0.210958,-0.000000152308,-15.930249,95.392999)">
<stop offset="0" style="stop-color:rgb(0%,0%,0%);stop-opacity:0.313725;"/>
<stop offset="0.222222" style="stop-color:rgb(0%,0%,0%);stop-opacity:0.27451;"/>
<stop offset="1" style="stop-color:rgb(0%,0%,0%);stop-opacity:0;"/>
</radialGradient>
<radialGradient id="radial3" gradientUnits="userSpaceOnUse" cx="450.908936" cy="189.579361" fx="450.908936" fy="189.579361" r="21.166656" gradientTransform="matrix(0.000000261256,0.117199,-0.210958,0.000000152308,63.559811,-11.291219)">
<stop offset="0" style="stop-color:rgb(0%,0%,0%);stop-opacity:0.313725;"/>
<stop offset="0.222222" style="stop-color:rgb(0%,0%,0%);stop-opacity:0.27451;"/>
<stop offset="1" style="stop-color:rgb(0%,0%,0%);stop-opacity:0;"/>
</radialGradient>
<linearGradient id="linear1" gradientUnits="userSpaceOnUse" x1="254" y1="233.5" x2="254" y2="32.416664" gradientTransform="matrix(3.779528,0,0,3.779528,0,978.579773)">
<stop offset="0" style="stop-color:rgb(14.901961%,77.647059%,85.490196%);stop-opacity:1;"/>
<stop offset="1" style="stop-color:rgb(30.196078%,81.568627%,88.235294%);stop-opacity:1;"/>
</linearGradient>
<linearGradient id="linear2" gradientUnits="userSpaceOnUse" x1="254" y1="233.5" x2="254" y2="32.416664" gradientTransform="matrix(0.093759,0,0,0.093759,0,14.576587)">
<stop offset="0" style="stop-color:rgb(14.901961%,77.647059%,85.490196%);stop-opacity:1;"/>
<stop offset="1" style="stop-color:rgb(30.196078%,81.568627%,88.235294%);stop-opacity:1;"/>
</linearGradient>
<linearGradient id="linear3" gradientUnits="userSpaceOnUse" x1="254" y1="233.5" x2="254" y2="32.416664" gradientTransform="matrix(3.779528,0,0,3.779528,0,978.579773)">
<stop offset="0" style="stop-color:rgb(14.901961%,77.647059%,85.490196%);stop-opacity:1;"/>
<stop offset="1" style="stop-color:rgb(30.196078%,81.568627%,88.235294%);stop-opacity:1;"/>
</linearGradient>
<linearGradient id="linear4" gradientUnits="userSpaceOnUse" x1="254" y1="233.5" x2="254" y2="32.416664" gradientTransform="matrix(0.093759,0,0,0.093759,0,-0.672026)">
<stop offset="0" style="stop-color:rgb(14.901961%,77.647059%,85.490196%);stop-opacity:1;"/>
<stop offset="1" style="stop-color:rgb(30.196078%,81.568627%,88.235294%);stop-opacity:1;"/>
</linearGradient>
</defs>
<g id="surface1">
<path style=" stroke:none;fill-rule:nonzero;fill:url(#linear0);" d="M 23.566406 42.050781 L 24.0625 42.050781 L 24.0625 44.035156 L 23.566406 44.035156 Z M 23.566406 42.050781 "/>
<path style=" stroke:none;fill-rule:nonzero;fill:url(#radial0);" d="M 24.0625 42.050781 L 28.03125 42.050781 L 28.03125 40.066406 L 24.0625 40.066406 Z M 24.0625 42.050781 "/>
<path style=" stroke:none;fill-rule:nonzero;fill:url(#radial1);" d="M 23.566406 42.050781 L 19.597656 42.050781 L 19.597656 44.035156 L 23.566406 44.035156 Z M 23.566406 42.050781 "/>
<path style=" stroke:none;fill-rule:nonzero;fill:url(#radial2);" d="M 23.566406 42.050781 L 19.597656 42.050781 L 19.597656 40.066406 L 23.566406 40.066406 Z M 23.566406 42.050781 "/>
<path style=" stroke:none;fill-rule:nonzero;fill:url(#radial3);" d="M 24.0625 42.050781 L 28.03125 42.050781 L 28.03125 44.035156 L 24.0625 44.035156 Z M 24.0625 42.050781 "/>
<path style="fill-rule:evenodd;fill:url(#linear1);stroke-width:11.338583;stroke-linecap:round;stroke-linejoin:round;stroke:rgb(12.941177%,12.941177%,12.941177%);stroke-opacity:1;stroke-miterlimit:4;" d="M 154.945841 1204.174935 L 154.945841 1451.552899 C 154.31598 1454.702205 154.00105 1457.851511 154.00105 1461.158282 C 154.00105 1478.321998 163.448967 1495.643179 182.187336 1503.516444 L 942.114806 1823.485905 C 947.783557 1825.847884 953.767238 1827.107607 959.908384 1827.107607 C 966.04953 1827.107607 972.190676 1825.847884 977.859426 1823.485905 L 1737.786897 1503.516444 C 1756.525266 1495.643179 1765.973183 1478.321998 1765.973183 1461.158282 C 1765.973183 1457.851511 1765.658253 1454.702205 1765.028391 1451.552899 L 1765.028391 1204.174935 Z M 154.945841 1204.174935 " transform="matrix(0.0248071,0,0,0.0248071,0,-3.200159)"/>
<path style=" stroke:none;fill-rule:evenodd;fill:rgb(0%,0%,0%);fill-opacity:0.235294;" d="M 23.8125 42.050781 C 23.660156 42.050781 23.511719 42.019531 23.371094 41.960938 L 4.519531 34.023438 C 3.984375 33.796875 3.753906 33.261719 3.835938 32.773438 C 3.898438 33.128906 4.128906 33.460938 4.519531 33.625 L 23.371094 41.566406 C 23.511719 41.625 23.660156 41.652344 23.8125 41.65625 C 23.964844 41.65625 24.117188 41.625 24.257812 41.566406 L 43.109375 33.625 C 43.503906 33.460938 43.730469 33.128906 43.792969 32.773438 C 43.875 33.261719 43.644531 33.796875 43.109375 34.023438 L 24.257812 41.960938 C 24.117188 42.019531 23.964844 42.050781 23.8125 42.050781 Z M 23.8125 42.050781 "/>
<path style=" stroke:none;fill-rule:evenodd;fill:url(#linear2);" d="M 23.8125 17.46875 C 23.660156 17.46875 23.511719 17.5 23.371094 17.558594 L 4.519531 25.496094 C 4.054688 25.691406 3.820312 26.117188 3.820312 26.546875 C 3.820312 26.976562 4.054688 27.402344 4.519531 27.597656 L 23.371094 35.535156 C 23.511719 35.59375 23.660156 35.625 23.8125 35.625 C 23.964844 35.625 24.117188 35.59375 24.257812 35.535156 L 43.109375 27.597656 C 43.574219 27.402344 43.808594 26.976562 43.808594 26.546875 C 43.808594 26.117188 43.574219 25.691406 43.109375 25.496094 L 24.257812 17.558594 C 24.117188 17.496094 23.964844 17.46875 23.8125 17.46875 Z M 23.8125 17.46875 "/>
<path style=" stroke:none;fill-rule:evenodd;fill:rgb(100%,100%,100%);fill-opacity:0.392157;" d="M 23.8125 17.46875 C 23.660156 17.46875 23.511719 17.5 23.371094 17.558594 L 4.519531 25.496094 C 3.984375 25.71875 3.753906 26.257812 3.835938 26.746094 C 3.898438 26.386719 4.128906 26.058594 4.519531 25.890625 L 23.371094 17.953125 C 23.511719 17.894531 23.660156 17.863281 23.8125 17.863281 C 23.964844 17.863281 24.117188 17.894531 24.257812 17.953125 L 43.109375 25.890625 C 43.503906 26.058594 43.730469 26.386719 43.792969 26.746094 C 43.875 26.257812 43.644531 25.71875 43.109375 25.496094 L 24.257812 17.558594 C 24.117188 17.496094 23.964844 17.46875 23.8125 17.46875 Z M 23.8125 17.46875 "/>
<path style=" stroke:none;fill-rule:evenodd;fill:rgb(0%,0%,0%);fill-opacity:0.235294;" d="M 23.8125 35.601562 C 23.660156 35.601562 23.511719 35.570312 23.371094 35.511719 L 4.519531 27.574219 C 3.984375 27.347656 3.753906 26.8125 3.835938 26.324219 C 3.898438 26.679688 4.128906 27.011719 4.519531 27.175781 L 23.371094 35.117188 C 23.511719 35.175781 23.660156 35.203125 23.8125 35.203125 C 23.964844 35.203125 24.117188 35.175781 24.257812 35.117188 L 43.109375 27.175781 C 43.503906 27.011719 43.730469 26.679688 43.792969 26.324219 C 43.875 26.8125 43.644531 27.347656 43.109375 27.574219 L 24.257812 35.511719 C 24.117188 35.570312 23.964844 35.601562 23.8125 35.601562 Z M 23.8125 35.601562 "/>
<path style=" stroke:none;fill-rule:evenodd;fill:rgb(12.941177%,12.941177%,12.941177%);fill-opacity:1;" d="M 23.8125 17.328125 C 23.644531 17.328125 23.472656 17.359375 23.316406 17.425781 L 4.464844 25.367188 C 3.949219 25.582031 3.679688 26.066406 3.679688 26.546875 C 3.679688 27.027344 3.949219 27.511719 4.464844 27.726562 L 23.316406 35.664062 C 23.472656 35.730469 23.644531 35.765625 23.8125 35.765625 C 23.984375 35.765625 24.152344 35.730469 24.3125 35.664062 L 43.164062 27.726562 C 43.679688 27.511719 43.949219 27.027344 43.949219 26.546875 C 43.949219 26.066406 43.679688 25.582031 43.164062 25.367188 L 24.3125 17.425781 C 24.152344 17.359375 23.984375 17.328125 23.8125 17.328125 Z M 23.8125 17.609375 C 23.945312 17.609375 24.078125 17.632812 24.203125 17.6875 L 43.054688 25.625 C 43.46875 25.796875 43.667969 26.167969 43.667969 26.546875 C 43.667969 26.921875 43.46875 27.296875 43.054688 27.46875 L 24.203125 35.40625 C 24.078125 35.457031 23.945312 35.484375 23.8125 35.484375 C 23.679688 35.484375 23.550781 35.457031 23.425781 35.40625 L 4.574219 27.46875 C 4.164062 27.296875 3.960938 26.921875 3.960938 26.546875 C 3.960938 26.167969 4.164062 25.796875 4.574219 25.625 L 23.425781 17.6875 C 23.550781 17.636719 23.679688 17.609375 23.8125 17.609375 Z M 23.8125 17.609375 "/>
<path style="fill-rule:evenodd;fill:url(#linear3);stroke-width:11.338583;stroke-linecap:round;stroke-linejoin:round;stroke:rgb(12.941177%,12.941177%,12.941177%);stroke-opacity:1;stroke-miterlimit:4;" d="M 154.945841 1204.119038 L 154.945841 1451.654468 C 154.31598 1454.646308 154.00105 1457.953079 154.00105 1461.102385 C 154.00105 1478.423567 163.448967 1495.587283 182.187336 1503.460547 L 942.114806 1823.430008 C 947.783557 1825.791988 953.767238 1827.05171 959.908384 1827.05171 C 966.04953 1827.05171 972.190676 1825.791988 977.859426 1823.430008 L 1737.786897 1503.460547 C 1756.525266 1495.587283 1765.973183 1478.423567 1765.973183 1461.102385 C 1765.973183 1457.953079 1765.658253 1454.646308 1765.028391 1451.654468 L 1765.028391 1204.119038 Z M 154.945841 1204.119038 " transform="matrix(0.0248071,0,0,0.0248071,0,-18.448772)"/>
<path style=" stroke:none;fill-rule:evenodd;fill:rgb(0%,0%,0%);fill-opacity:0.235294;" d="M 23.8125 26.800781 C 23.660156 26.800781 23.511719 26.773438 23.371094 26.714844 L 4.519531 18.773438 C 3.984375 18.550781 3.753906 18.011719 3.835938 17.523438 C 3.898438 17.882812 4.128906 18.214844 4.519531 18.378906 L 23.371094 26.316406 C 23.511719 26.375 23.660156 26.40625 23.8125 26.40625 C 23.964844 26.40625 24.117188 26.375 24.257812 26.316406 L 43.109375 18.378906 C 43.503906 18.214844 43.730469 17.882812 43.792969 17.523438 C 43.875 18.011719 43.644531 18.550781 43.109375 18.773438 L 24.257812 26.714844 C 24.117188 26.773438 23.964844 26.800781 23.8125 26.800781 Z M 23.8125 26.800781 "/>
<path style=" stroke:none;fill-rule:evenodd;fill:url(#linear4);" d="M 23.8125 2.21875 C 23.660156 2.21875 23.511719 2.25 23.371094 2.308594 L 4.519531 10.246094 C 4.054688 10.441406 3.820312 10.871094 3.820312 11.296875 C 3.820312 11.726562 4.054688 12.152344 4.519531 12.347656 L 23.371094 20.289062 C 23.511719 20.347656 23.660156 20.375 23.8125 20.375 C 23.964844 20.378906 24.117188 20.347656 24.257812 20.289062 L 43.109375 12.347656 C 43.574219 12.152344 43.808594 11.726562 43.808594 11.296875 C 43.808594 10.871094 43.574219 10.441406 43.109375 10.246094 L 24.257812 2.308594 C 24.117188 2.25 23.964844 2.21875 23.8125 2.21875 Z M 23.8125 2.21875 "/>
<path style=" stroke:none;fill-rule:evenodd;fill:rgb(100%,100%,100%);fill-opacity:0.392157;" d="M 23.8125 2.21875 C 23.660156 2.21875 23.511719 2.25 23.371094 2.308594 L 4.519531 10.246094 C 3.984375 10.472656 3.753906 11.007812 3.835938 11.496094 C 3.898438 11.140625 4.128906 10.808594 4.519531 10.644531 L 23.371094 2.703125 C 23.511719 2.644531 23.660156 2.617188 23.8125 2.617188 C 23.964844 2.613281 24.117188 2.644531 24.257812 2.703125 L 43.109375 10.644531 C 43.503906 10.808594 43.730469 11.140625 43.792969 11.496094 C 43.875 11.007812 43.644531 10.472656 43.109375 10.246094 L 24.257812 2.308594 C 24.117188 2.25 23.964844 2.21875 23.8125 2.21875 Z M 23.8125 2.21875 "/>
<path style=" stroke:none;fill-rule:evenodd;fill:rgb(0%,0%,0%);fill-opacity:0.235294;" d="M 23.8125 20.351562 C 23.660156 20.351562 23.511719 20.320312 23.371094 20.261719 L 4.519531 12.324219 C 3.984375 12.097656 3.753906 11.5625 3.835938 11.074219 C 3.898438 11.433594 4.128906 11.761719 4.519531 11.929688 L 23.371094 19.867188 C 23.511719 19.925781 23.660156 19.957031 23.8125 19.957031 C 23.964844 19.957031 24.117188 19.925781 24.257812 19.867188 L 43.109375 11.929688 C 43.503906 11.761719 43.730469 11.433594 43.792969 11.074219 C 43.875 11.5625 43.644531 12.097656 43.109375 12.324219 L 24.257812 20.261719 C 24.117188 20.324219 23.964844 20.351562 23.8125 20.351562 Z M 23.8125 20.351562 "/>
<path style=" stroke:none;fill-rule:evenodd;fill:rgb(12.941177%,12.941177%,12.941177%);fill-opacity:1;" d="M 23.8125 2.078125 C 23.644531 2.078125 23.472656 2.113281 23.316406 2.179688 L 4.464844 10.117188 C 3.949219 10.335938 3.679688 10.816406 3.679688 11.296875 C 3.679688 11.777344 3.949219 12.261719 4.464844 12.480469 L 23.316406 20.417969 C 23.472656 20.484375 23.644531 20.515625 23.8125 20.515625 C 23.984375 20.519531 24.152344 20.484375 24.3125 20.417969 L 43.164062 12.480469 C 43.679688 12.261719 43.949219 11.777344 43.949219 11.296875 C 43.949219 10.816406 43.679688 10.335938 43.164062 10.117188 L 24.3125 2.179688 C 24.152344 2.113281 23.984375 2.078125 23.8125 2.078125 Z M 23.8125 2.359375 C 23.945312 2.359375 24.078125 2.386719 24.203125 2.4375 L 43.054688 10.375 C 43.46875 10.550781 43.667969 10.921875 43.667969 11.296875 C 43.667969 11.675781 43.46875 12.046875 43.054688 12.21875 L 24.203125 20.15625 C 24.078125 20.210938 23.945312 20.234375 23.8125 20.234375 C 23.679688 20.234375 23.550781 20.210938 23.425781 20.15625 L 4.574219 12.21875 C 4.164062 12.046875 3.960938 11.675781 3.960938 11.296875 C 3.960938 10.921875 4.164062 10.550781 4.574219 10.375 L 23.425781 2.4375 C 23.550781 2.386719 23.679688 2.359375 23.8125 2.359375 Z M 23.8125 2.359375 "/>
</g>
</svg>
